X: 1
T: Christchurch Bells  [C]
N: This tune may be played as a three-part round
R: march
O: 1686
B: J.Barlow p.57 #222; Barnes
D:
Z: John Chambers <jc@trillian.mit.edu>
M: C|
L: 1/8
K: C
V: 1
[| "C"c3c  c2c2 |    c2c2     c2e2 | "F"d2c2     B2A2 | "G"G3G  G2G2 "I"|\
   "C"E2G2 C2G2 | "F"c2F2 "G7"G2gf | "F"e2a2 "G7"def2 | "C"He3d c4  |]
V: 2
[| "C"e3e  e2e2 |    e2e2     e2g2 | "F"f2ef     d2c2 | "G"d2G2 d2d2 |\
   "C"e2d2 e2d2 | "F"e2d2 "G7"d2cB | "F"c2A2 "G7"d2B2 | "C"Hc3d e4  |]
V: 3
[| "C"gggg g2gg |    g2gg     g2G2 | "F"A3A      B2c2 | "G"B6     AB |\
   "C"c2B2 c2B2 | "F"c2d2 "G7"B2AG | "F"A2F2 "G7"G3G  | "C"H[c6C6]z2|]

%%sep 1 1 400


